static/images/logo.svg

<svg width="267" height="344" fill="none" xmlns="http://www.w3.org/2000/svg"><path d="M.192 133.016C.192 49.881 67.81 0 133.21 0c65.399 0 133.016 49.881 133.016 133.016 0 79.81-119.715 201.741-125.257 207.284-2.217 2.217-4.434 3.325-7.759 3.325-3.326 0-5.543-1.108-7.76-3.325C119.907 334.757.192 211.717.192 133.016Z" fill="#0B9072"/><mask id="a" style="mask-type:alpha" maskUnits="userSpaceOnUse" x="0" y="0" width="267" height="344"><path d="M.192 133.016C.192 49.881 67.81 0 133.21 0c65.399 0 133.016 49.881 133.016 133.016 0 79.81-119.715 201.741-125.257 207.284-2.217 2.217-4.434 3.325-7.759 3.325-3.326 0-5.543-1.108-7.76-3.325C119.907 334.757.192 211.717.192 133.016Z" fill="#0B9072"/></mask><g mask="url(#a)"><path fill="#0099AF" d="m132.369 171.819 93.032 93.032-94.525 94.525-93.032-93.032z"/><path d="m135.541 179.688 98.012 91.011c78.409-97.078 54.451-191.356 32.671-226.36L135.541 179.688Z" fill="#051173"/><path fill="#53C5D5" d="M36.691 247.691 242.633 41.75l27.095 27.095L63.786 274.786z"/><path fill="#53C5D5" d="m153.3 172.688 84.884 84.884-27.095 27.095-84.884-84.884z"/></g><circle cx="130.874" cy="140.017" r="79.343" fill="#E4EBEC"/><g clip-path="url(#b)"><path d="M157.264 143.33c6.249-1.226 10.982-5.066 12.302-13.224 1.821-11.143-6.946-17.392-18.966-21.723l4.031-15.053-9.528-2.554-3.93 14.656a410.534 410.534 0 0 0-7.633-1.941l3.951-14.752-9.52-2.552-4.034 15.049a326.208 326.208 0 0 1-6.088-1.547l.011-.045-13.141-3.526-2.62 9.784s7.071 1.758 6.922 1.851c3.857 1.036 4.54 3.529 4.403 5.486l-4.591 17.148-6.454 24.088c-.483 1.121-1.698 2.795-4.396 2.075.095.137-6.931-1.858-6.931-1.858l-4.822 10.435 12.398 3.322c2.309.621 4.57 1.264 6.792 1.878l-4.071 15.225 9.517 2.552 4.034-15.064c2.604.753 5.126 1.453 7.595 2.111l-4.02 14.992 9.528 2.553 4.078-15.196c16.253 3.407 28.505 2.531 33.775-11.562 4.245-11.346-.061-18.072-8.592-22.608Zm-26.382-29.008c5.374 1.44 22.716 4.323 19.825 15.121-2.776 10.35-19.347 4.614-24.727 3.173l4.902-18.294Zm-12.785 47.698 5.409-20.169c6.457 1.728 27.186 5.369 24.009 17.237-3.047 11.382-22.956 4.658-29.418 2.932Z" fill="#0B9072"/></g><defs><clipPath id="b"><path fill="#fff" transform="rotate(15 -244.968 440.629)" d="M0 0h83.976v106.37H0z"/></clipPath></defs></svg>

<svg width="267" height="344" viewBox="0 0 267 344" fill="none" xmlns="http://www.w3.org/2000/svg">
<path d="M0.192383 133.016C0.192383 49.881 67.8089 0 133.209 0C198.608 0 266.225 49.881 266.225 133.016C266.225 212.826 146.51 334.757 140.968 340.3C138.751 342.517 136.534 343.625 133.209 343.625C129.883 343.625 127.666 342.517 125.449 340.3C119.907 334.757 0.192383 211.717 0.192383 133.016Z" fill="#0B9072"/>
<mask id="mask0_116_862" style="mask-type:alpha" maskUnits="userSpaceOnUse" x="0" y="0" width="267" height="344">
<path d="M0.192383 133.016C0.192383 49.881 67.8089 0 133.209 0C198.608 0 266.225 49.881 266.225 133.016C266.225 212.826 146.51 334.757 140.968 340.3C138.751 342.517 136.534 343.625 133.209 343.625C129.883 343.625 127.666 342.517 125.449 340.3C119.907 334.757 0.192383 211.717 0.192383 133.016Z" fill="#0B9072"/>
</mask>
<g mask="url(#mask0_116_862)">
<rect x="132.369" y="171.819" width="131.567" height="133.678" transform="rotate(45 132.369 171.819)" fill="#0099AF"/>
<path d="M135.541 179.688L233.553 270.699C311.962 173.621 288.004 79.3429 266.224 44.3386L135.541 179.688Z" fill="#051173"/>
<rect x="36.6914" y="247.691" width="291.246" height="38.318" transform="rotate(-45 36.6914 247.691)" fill="#53C5D5"/>
<rect x="153.3" y="172.688" width="120.044" height="38.318" transform="rotate(45 153.3 172.688)" fill="#53C5D5"/>
</g>
<circle cx="130.874" cy="140.017" r="79.343" fill="#E4EBEC"/>
<g clip-path="url(#clip0_116_862)">
<path d="M157.264 143.33C163.513 142.104 168.246 138.264 169.566 130.106C171.387 118.963 162.62 112.714 150.6 108.383L154.631 93.3295L145.103 90.7764L141.173 105.432C138.666 104.761 136.098 104.123 133.54 103.491L137.491 88.739L127.971 86.1873L123.937 101.236C121.863 100.723 119.827 100.219 117.849 99.6888L117.86 99.6443L104.719 96.1176L102.099 105.902C102.099 105.902 109.17 107.66 109.021 107.753C112.878 108.789 113.561 111.282 113.424 113.239L108.833 130.387L102.379 154.475C101.896 155.596 100.681 157.27 97.9828 156.55C98.0777 156.687 91.0519 154.692 91.0519 154.692L86.2303 165.127L98.6278 168.449C100.937 169.07 103.198 169.713 105.42 170.327L101.349 185.552L110.866 188.104L114.9 173.04C117.504 173.793 120.026 174.493 122.495 175.151L118.475 190.143L128.003 192.696L132.081 177.5C148.334 180.907 160.586 180.031 165.856 165.938C170.101 154.592 165.795 147.866 157.264 143.33ZM130.882 114.322C136.256 115.762 153.598 118.645 150.707 129.443C147.931 139.793 131.36 134.057 125.98 132.616L130.882 114.322ZM118.097 162.02L123.506 141.851C129.963 143.579 150.692 147.22 147.515 159.088C144.468 170.47 124.559 163.746 118.097 162.02Z" fill="#0B9072"/>
</g>
<defs>
<clipPath id="clip0_116_862">
<rect width="83.9761" height="106.37" fill="white" transform="translate(105.696 78.4165) rotate(15)"/>
</clipPath>
</defs>
</svg>
